P3
80 40
255
0 127 0
0 127 0
0 127 0
0 127 0
0 127 0
0 127 0
0 127 0
0 127 0
0 127 0
0 127 0
0 127 0
0 127 0
0 127 0
0 127 0
0 127 0
0 127 0
0 127 0
0 127 0
0 127 0
0 127 0
0 127 0
0 127 0
0 127 0
0 127 0
0 127 0
0 127 0
0 127 0
0 127 0
0 127 0
0 127 0
0 127 0
0 127 0
0 127 0
0 127 0
0 127 0
0 127 0
0 127 0
0 127 0
0 127 0
0 127 0
0 127 0
0 127 0
0 127 0
0 127 0
0 127 0
0 127 0
0 127 0
0 127 0
0 127 0
0 127 0
0 127 0
0 127 0
0 127 0
0 127 0
0 127 0
0 127 0
0 127 0
0 127 0
0 127 0
0 127 0
0 127 0
0 127 0
0 127 0
0 127 0
0 127 0
0 127 0
0 127 0
0 127 0
0 127 0
0 127 0
0 127 0
0 127 0
0 127 0
0 127 0
0 127 0
0 127 0
0 127 0
0 127 0
0 127 0
0 127 0
0 127 0
0 127 0
0 127 0
0 127 0
0 127 0
0 127 0
0 127 0
0 127 0
0 127 0
0 127 0
0 127 0
0 127 0
0 127 0
0 127 0
0 127 0
0 127 0
0 127 0
0 127 0
0 127 0
0 127 0
0 127 0
0 127 0
0 127 0
0 127 0
0 127 0
0 127 0
0 127 0
0 127 0
0 127 0
0 127 0
0 127 0
0 127 0
0 127 0
0 127 0
0 127 0
0 127 0
0 127 0
0 127 0
0 127 0
0 127 0
0 127 0
0 127 0
0 127 0
0 127 0
0 127 0
0 127 0
0 127 0
0 127 0
0 127 0
0 127 0
0 127 0
0 127 0
0 127 0
0 127 0
0 127 0
0 127 0
0 127 0
0 127 0
0 127 0
0 127 0
0 127 0
0 127 0
0 127 0
0 127 0
0 127 0
0 127 0
0 127 0
0 127 0
0 127 0
0 127 0
0 127 0
0 127 0
0 127 0
0 127 0
0 127 0
0 127 0
0 127 0
0 127 0
0 127 0
0 127 0
0 127 0
0 127 0
0 127 0
0 127 0
0 127 0
0 127 0
0 127 0
0 127 0
0 127 0
0 127 0
0 127 0
0 127 0
0 127 0
0 127 0
0 127 0
0 127 0
0 127 0
0 127 0
0 127 0
0 127 0
0 127 0
0 127 0
0 127 0
0 127 0
0 127 0
0 127 0
0 127 0
0 127 0
0 127 0
0 127 0
0 127 0
0 127 0
0 127 0
0 127 0
0 127 0
0 127 0
0 127 0
0 127 0
0 127 0
0 127 0
0 127 0
0 127 0
0 127 0
0 127 0
0 127 0
0 127 0
0 127 0
0 127 0
0 127 0
0 127 0
0 127 0
0 127 0
0 127 0
0 127 0
0 127 0
0 127 0
0 127 0
0 127 0
0 127 0
0 127 0
0 127 0
0 127 0
0 127 0
0 127 0
0 127 0
0 127 0
0 127 0
0 127 0
0 127 0
0 127 0
0 127 0
0 127 0
0 127 0
0 127 0
0 127 0
0 127 0
0 127 0
0 127 0
0 127 0
0 127 0
0 127 0
0 127 0
0 127 0
0 127 0
0 127 0
0 127 0
0 127 0
0 127 0
0 127 0
0 127 0
0 127 0
0 127 0
0 127 0
0 127 0
0 127 0
0 127 0
0 127 0
0 127 0
0 127 0
0 127 0
0 127 0
0 127 0
0 127 0
0 127 0
0 127 0
0 127 0
0 127 0
0 127 0
0 127 0
0 127 0
0 127 0
0 127 0
0 127 0
0 127 0
0 127 0
0 127 0
0 127 0
0 127 0
0 127 0
0 127 0
0 127 0
0 127 0
0 127 0
0 127 0
0 127 0
0 127 0
0 127 0
0 127 0
0 127 0
0 127 0
0 127 0
0 127 0
0 127 0
0 127 0
0 127 0
0 127 0
0 127 0
0 127 0
0 127 0
0 127 0
0 127 0
0 127 0
0 127 0
0 127 0
0 127 0
0 127 0
0 127 0
0 127 0
0 127 0
0 127 0
0 127 0
0 127 0
0 127 0
0 127 0
0 127 0
0 127 0
0 127 0
0 127 0
0 127 0
0 127 0
0 127 0
0 127 0
0 127 0
0 127 0
0 127 0
0 127 0
0 127 0
0 127 0
0 127 0
0 127 0
0 127 0
0 127 0
0 127 0
0 127 0
0 127 0
0 127 0
0 127 0
0 127 0
0 127 0
0 127 0
0 127 0
0 127 0
0 127 0
0 127 0
0 127 0
0 127 0
0 127 0
0 127 0
0 127 0
0 127 0
0 127 0
0 127 0
0 127 0
0 127 0
0 127 0
0 127 0
0 127 0
0 127 0
0 127 0
0 127 0
0 127 0
0 127 0
0 127 0
0 127 0
0 127 0
0 127 0
0 127 0
0 127 0
0 127 0
0 127 0
0 127 0
0 127 0
0 127 0
0 127 0
0 127 0
0 127 0
0 127 0
0 127 0
0 127 0
0 127 0
0 127 0
0 127 0
0 127 0
0 127 0
0 127 0
0 127 0
0 127 0
0 127 0
0 127 0
0 127 0
0 127 0
0 127 0
0 127 0
0 127 0
0 127 0
0 127 0
0 127 0
0 127 0
0 127 0
0 127 0
0 127 0
0 127 0
0 127 0
0 127 0
0 127 0
0 127 0
0 127 0
0 127 0
0 127 0
0 127 0
0 127 0
0 127 0
0 127 0
0 127 0
0 127 0
0 127 0
0 127 0
0 127 0
0 127 0
0 127 0
0 127 0
0 127 0
0 127 0
0 127 0
0 127 0
0 127 0
0 127 0
0 127 0
0 127 0
0 127 0
0 127 0
0 127 0
0 127 0
0 127 0
0 127 0
0 127 0
0 127 0
0 127 0
0 127 0
0 127 0
0 127 0
0 127 0
0 127 0
0 127 0
0 127 0
0 127 0
0 127 0
0 127 0
0 127 0
0 127 0
0 127 0
0 127 0
0 127 0
0 127 0
0 127 0
0 127 0
0 127 0
0 127 0
0 127 0
0 127 0
0 127 0
0 127 0
0 127 0
0 127 0
0 127 0
0 127 0
0 127 0
0 127 0
0 127 0
0 127 0
0 127 0
0 127 0
0 127 0
0 127 0
0 127 0
0 127 0
0 127 0
0 127 0
0 127 0
0 127 0
0 127 0
0 127 0
0 127 0
0 127 0
0 127 0
0 127 0
0 127 0
0 127 0
0 127 0
0 127 0
0 127 0
0 127 0
0 127 0
0 127 0
255 255 255
255 255 255
255 255 255
255 255 255
255 255 255
0 127 0
0 127 0
0 127 0
0 127 0
0 127 0
0 127 0
0 127 0
0 127 0
0 127 0
0 127 0
0 127 0
0 127 0
0 127 0
0 127 0
0 127 0
0 127 0
0 127 0
0 127 0
0 127 0
0 127 0
0 127 0
0 127 0
0 127 0
0 127 0
0 127 0
0 127 0
0 127 0
0 127 0
0 127 0
0 127 0
0 127 0
0 127 0
0 127 0
0 127 0
0 127 0
0 127 0
0 127 0
0 127 0
0 127 0
0 127 0
0 127 0
0 127 0
255 255 255
255 255 255
255 255 255
255 255 255
255 255 255
0 127 0
0 127 0
0 127 0
0 127 0
0 127 0
0 127 0
0 127 0
0 127 0
0 127 0
0 127 0
0 127 0
0 127 0
0 127 0
0 127 0
0 127 0
0 127 0
0 127 0
0 127 0
0 127 0
0 127 0
0 127 0
0 127 0
0 127 0
0 127 0
0 127 0
0 127 0
255 255 255
255 255 255
0 127 0
0 127 0
0 127 0
0 127 0
0 127 0
255 255 255
255 255 255
0 127 0
0 127 0
0 127 0
0 127 0
0 127 0
0 127 0
0 127 0
0 127 0
0 127 0
0 127 0
0 127 0
0 127 0
0 127 0
0 127 0
0 127 0
0 127 0
0 127 0
0 127 0
0 127 0
0 127 0
0 127 0
0 127 0
0 127 0
0 127 0
0 127 0
0 127 0
0 127 0
0 127 0
0 127 0
0 127 0
0 127 0
0 127 0
0 127 0
0 127 0
0 127 0
0 127 0
0 127 0
0 127 0
255 255 255
255 255 255
0 127 0
0 127 0
0 127 0
0 127 0
0 127 0
255 255 255
255 255 255
0 127 0
0 127 0
0 127 0
0 127 0
0 127 0
0 127 0
0 127 0
0 127 0
0 127 0
0 127 0
0 127 0
0 127 0
0 127 0
0 127 0
0 127 0
0 127 0
0 127 0
0 127 0
0 127 0
0 127 0
0 127 0
0 127 0
0 127 0
255 255 255
0 127 0
0 127 0
0 127 0
0 127 0
0 127 0
0 127 0
0 127 0
0 127 0
0 127 0
255 255 255
0 127 0
0 127 0
0 127 0
0 127 0
0 127 0
0 127 0
0 127 0
0 127 0
0 127 0
0 127 0
0 127 0
0 127 0
0 127 0
0 127 0
0 127 0
0 127 0
0 127 0
0 127 0
0 127 0
0 127 0
0 127 0
0 127 0
0 127 0
0 127 0
0 127 0
0 127 0
0 127 0
0 127 0
0 127 0
0 127 0
0 127 0
0 127 0
0 127 0
0 127 0
0 127 0
0 127 0
255 255 255
0 127 0
0 127 0
0 127 0
0 127 0
0 127 0
0 127 0
0 127 0
0 127 0
0 127 0
255 255 255
0 127 0
0 127 0
0 127 0
0 127 0
0 127 0
0 127 0
0 127 0
0 127 0
0 127 0
0 127 0
0 127 0
0 127 0
0 127 0
0 127 0
0 127 0
0 127 0
0 127 0
0 127 0
0 127 0
0 127 0
0 127 0
255 255 255
0 127 0
0 127 0
0 127 0
0 127 0
0 127 0
0 127 0
0 127 0
0 127 0
0 127 0
0 127 0
0 127 0
255 255 255
0 127 0
0 127 0
0 127 0
0 127 0
0 127 0
0 127 0
0 127 0
0 127 0
0 127 0
0 127 0
0 127 0
0 127 0
0 127 0
0 127 0
0 127 0
0 127 0
0 127 0
0 127 0
0 127 0
0 127 0
0 127 0
0 127 0
0 127 0
0 127 0
0 127 0
0 127 0
0 127 0
0 127 0
0 127 0
0 127 0
0 127 0
0 127 0
0 127 0
0 127 0
255 255 255
0 127 0
0 127 0
0 127 0
0 127 0
0 127 0
0 127 0
0 127 0
0 127 0
0 127 0
0 127 0
0 127 0
255 255 255
0 127 0
0 127 0
0 127 0
0 127 0
0 127 0
0 127 0
0 127 0
0 127 0
0 127 0
0 127 0
0 127 0
0 127 0
0 127 0
0 127 0
0 127 0
0 127 0
0 127 0
0 127 0
0 127 0
255 255 255
0 127 0
0 127 0
0 127 0
0 127 0
0 127 0
0 127 0
0 127 0
0 127 0
0 127 0
0 127 0
0 127 0
0 127 0
0 127 0
255 255 255
0 127 0
0 127 0
0 127 0
0 127 0
0 127 0
0 127 0
0 127 0
0 127 0
0 127 0
0 127 0
0 127 0
0 127 0
0 127 0
0 127 0
0 127 0
0 127 0
0 127 0
0 127 0
0 127 0
0 127 0
0 127 0
0 127 0
0 127 0
0 127 0
0 127 0
0 127 0
0 127 0
0 127 0
0 127 0
0 127 0
0 127 0
0 127 0
255 255 255
0 127 0
0 127 0
0 127 0
0 127 0
0 127 0
0 127 0
0 127 0
0 127 0
0 127 0
0 127 0
0 127 0
0 127 0
0 127 0
255 255 255
0 127 0
0 127 0
0 127 0
0 127 0
0 127 0
0 127 0
0 127 0
0 127 0
0 127 0
0 127 0
0 127 0
0 127 0
0 127 0
0 127 0
0 127 0
0 127 0
0 127 0
0 127 0
255 255 255
0 127 0
0 127 0
0 127 0
0 127 0
0 127 0
0 127 0
0 127 0
0 127 0
0 127 0
0 127 0
0 127 0
0 127 0
0 127 0
255 255 255
0 127 0
0 127 0
0 127 0
0 127 0
0 127 0
0 127 0
0 127 0
0 127 0
0 127 0
0 127 0
0 127 0
0 127 0
0 127 0
0 127 0
0 127 0
0 127 0
0 127 0
0 127 0
0 127 0
0 127 0
0 127 0
0 127 0
0 127 0
0 127 0
0 127 0
0 127 0
0 127 0
0 127 0
0 127 0
0 127 0
0 127 0
0 127 0
255 255 255
0 127 0
0 127 0
0 127 0
0 127 0
0 127 0
0 127 0
0 127 0
0 127 0
0 127 0
0 127 0
0 127 0
0 127 0
0 127 0
255 255 255
0 127 0
0 127 0
0 127 0
0 127 0
0 127 0
0 127 0
0 127 0
0 127 0
0 127 0
0 127 0
0 127 0
0 127 0
0 127 0
0 127 0
0 127 0
0 127 0
0 127 0
255 255 255
0 127 0
0 127 0
0 127 0
255 255 255
255 255 255
255 255 255
0 127 0
0 127 0
0 127 0
0 127 0
0 127 0
0 127 0
0 127 0
0 127 0
0 127 0
255 255 255
0 127 0
0 127 0
0 127 0
0 127 0
0 127 0
0 127 0
0 127 0
0 127 0
0 127 0
0 127 0
0 127 0
0 127 0
0 127 0
0 127 0
0 127 0
0 127 0
0 127 0
0 127 0
0 127 0
0 127 0
0 127 0
0 127 0
0 127 0
0 127 0
0 127 0
0 127 0
0 127 0
0 127 0
0 127 0
0 127 0
255 255 255
0 127 0
0 127 0
0 127 0
255 255 255
255 255 255
255 255 255
0 127 0
0 127 0
0 127 0
0 127 0
0 127 0
0 127 0
0 127 0
0 127 0
0 127 0
255 255 255
0 127 0
0 127 0
0 127 0
0 127 0
0 127 0
0 127 0
0 127 0
0 127 0
0 127 0
0 127 0
0 127 0
0 127 0
0 127 0
0 127 0
0 127 0
0 127 0
255 255 255
0 127 0
0 127 0
255 255 255
255 255 255
255 255 255
255 255 255
255 255 255
0 127 0
0 127 0
0 127 0
0 127 0
0 127 0
0 127 0
0 127 0
0 127 0
255 255 255
0 127 0
0 127 0
0 127 0
0 127 0
0 127 0
0 127 0
0 127 0
0 127 0
0 127 0
0 127 0
0 127 0
0 127 0
0 127 0
0 127 0
0 127 0
0 127 0
0 127 0
0 127 0
0 127 0
0 127 0
0 127 0
0 127 0
0 127 0
0 127 0
0 127 0
0 127 0
0 127 0
0 127 0
0 127 0
0 127 0
255 255 255
0 127 0
0 127 0
255 255 255
255 255 255
255 255 255
255 255 255
255 255 255
0 127 0
0 127 0
0 127 0
0 127 0
0 127 0
0 127 0
0 127 0
0 127 0
255 255 255
0 127 0
0 127 0
0 127 0
0 127 0
0 127 0
0 127 0
0 127 0
0 127 0
0 127 0
0 127 0
0 127 0
0 127 0
0 127 0
0 127 0
0 127 0
0 127 0
255 255 255
0 127 0
255 255 255
255 255 255
255 255 255
255 255 255
255 255 255
255 255 255
255 255 255
0 127 0
0 127 0
0 127 0
0 127 0
0 127 0
0 127 0
0 127 0
255 255 255
0 127 0
0 127 0
0 127 0
0 127 0
0 127 0
0 127 0
0 127 0
0 127 0
0 127 0
0 127 0
0 127 0
0 127 0
0 127 0
0 127 0
0 127 0
0 127 0
0 127 0
0 127 0
0 127 0
0 127 0
0 127 0
0 127 0
0 127 0
0 127 0
0 127 0
0 127 0
0 127 0
0 127 0
0 127 0
0 127 0
255 255 255
0 127 0
255 255 255
255 255 255
255 255 255
255 255 255
255 255 255
255 255 255
255 255 255
0 127 0
0 127 0
0 127 0
0 127 0
0 127 0
0 127 0
0 127 0
255 255 255
0 127 0
0 127 0
0 127 0
0 127 0
0 127 0
0 127 0
0 127 0
0 127 0
0 127 0
0 127 0
0 127 0
0 127 0
0 127 0
0 127 0
0 127 0
0 127 0
255 255 255
0 127 0
255 255 255
255 255 255
255 255 255
255 255 255
255 255 255
255 255 255
255 255 255
0 127 0
0 127 0
0 127 0
0 127 0
0 127 0
0 127 0
0 127 0
255 255 255
0 127 0
0 127 0
0 127 0
0 127 0
0 127 0
0 127 0
0 127 0
0 127 0
0 127 0
0 127 0
0 127 0
0 127 0
0 127 0
0 127 0
0 127 0
0 127 0
0 127 0
0 127 0
0 127 0
0 127 0
0 127 0
0 127 0
0 127 0
0 127 0
0 127 0
0 127 0
0 127 0
0 127 0
0 127 0
0 127 0
255 255 255
0 127 0
255 255 255
255 255 255
255 255 255
255 255 255
255 255 255
255 255 255
255 255 255
0 127 0
0 127 0
0 127 0
0 127 0
0 127 0
0 127 0
0 127 0
255 255 255
0 127 0
0 127 0
0 127 0
0 127 0
0 127 0
0 127 0
0 127 0
0 127 0
0 127 0
0 127 0
0 127 0
0 127 0
0 127 0
0 127 0
0 127 0
0 127 0
255 255 255
0 127 0
255 255 255
255 255 255
255 255 255
255 255 255
255 255 255
255 255 255
255 255 255
0 127 0
0 127 0
0 127 0
0 127 0
0 127 0
0 127 0
0 127 0
255 255 255
0 127 0
0 127 0
0 127 0
0 127 0
0 127 0
0 127 0
0 127 0
0 127 0
0 127 0
0 127 0
0 127 0
0 127 0
0 127 0
0 127 0
0 127 0
0 127 0
0 127 0
0 127 0
0 127 0
0 127 0
0 127 0
0 127 0
0 127 0
0 127 0
0 127 0
0 127 0
0 127 0
0 127 0
0 127 0
0 127 0
255 255 255
0 127 0
255 255 255
255 255 255
255 255 255
255 255 255
255 255 255
255 255 255
255 255 255
0 127 0
0 127 0
0 127 0
0 127 0
0 127 0
0 127 0
0 127 0
255 255 255
0 127 0
0 127 0
0 127 0
0 127 0
0 127 0
0 127 0
0 127 0
0 127 0
0 127 0
0 127 0
0 127 0
0 127 0
0 127 0
0 127 0
0 127 0
0 127 0
0 127 0
255 255 255
0 127 0
255 255 255
255 255 255
255 255 255
255 255 255
255 255 255
0 127 0
0 127 0
0 127 0
0 127 0
0 127 0
0 127 0
0 127 0
255 255 255
0 127 0
0 127 0
0 127 0
0 127 0
0 127 0
0 127 0
0 127 0
0 127 0
0 127 0
0 127 0
0 127 0
0 127 0
0 127 0
0 127 0
0 127 0
0 127 0
0 127 0
0 127 0
0 127 0
0 127 0
0 127 0
0 127 0
0 127 0
0 127 0
0 127 0
0 127 0
0 127 0
0 127 0
0 127 0
0 127 0
0 127 0
0 127 0
255 255 255
0 127 0
255 255 255
255 255 255
255 255 255
255 255 255
255 255 255
0 127 0
0 127 0
0 127 0
0 127 0
0 127 0
0 127 0
0 127 0
255 255 255
0 127 0
0 127 0
0 127 0
0 127 0
0 127 0
0 127 0
0 127 0
0 127 0
0 127 0
0 127 0
0 127 0
0 127 0
0 127 0
0 127 0
0 127 0
0 127 0
0 127 0
0 127 0
255 255 255
0 127 0
0 127 0
255 255 255
255 255 255
255 255 255
0 127 0
0 127 0
0 127 0
0 127 0
0 127 0
0 127 0
0 127 0
0 127 0
255 255 255
0 127 0
0 127 0
0 127 0
0 127 0
0 127 0
0 127 0
0 127 0
0 127 0
0 127 0
0 127 0
0 127 0
0 127 0
0 127 0
0 127 0
0 127 0
0 127 0
0 127 0
0 127 0
0 127 0
0 127 0
0 127 0
0 127 0
0 127 0
0 127 0
0 127 0
0 127 0
0 127 0
0 127 0
0 127 0
0 127 0
0 127 0
0 127 0
255 255 255
0 127 0
0 127 0
255 255 255
255 255 255
255 255 255
0 127 0
0 127 0
0 127 0
0 127 0
0 127 0
0 127 0
0 127 0
0 127 0
255 255 255
0 127 0
0 127 0
0 127 0
0 127 0
0 127 0
0 127 0
0 127 0
0 127 0
0 127 0
0 127 0
0 127 0
0 127 0
0 127 0
0 127 0
0 127 0
0 127 0
0 127 0
0 127 0
0 127 0
255 255 255
0 127 0
0 127 0
0 127 0
0 127 0
0 127 0
0 127 0
0 127 0
0 127 0
0 127 0
0 127 0
0 127 0
255 255 255
0 127 0
0 127 0
0 127 0
0 127 0
0 127 0
0 127 0
0 127 0
0 127 0
0 127 0
0 127 0
0 127 0
0 127 0
0 127 0
0 127 0
0 127 0
0 127 0
0 127 0
0 127 0
0 127 0
0 127 0
0 127 0
0 127 0
0 127 0
0 127 0
0 127 0
0 127 0
0 127 0
0 127 0
0 127 0
0 127 0
0 127 0
0 127 0
0 127 0
0 127 0
255 255 255
0 127 0
0 127 0
0 127 0
0 127 0
0 127 0
0 127 0
0 127 0
0 127 0
0 127 0
0 127 0
0 127 0
255 255 255
0 127 0
0 127 0
0 127 0
0 127 0
0 127 0
0 127 0
0 127 0
0 127 0
0 127 0
0 127 0
0 127 0
0 127 0
0 127 0
0 127 0
0 127 0
0 127 0
0 127 0
0 127 0
0 127 0
0 127 0
0 127 0
255 255 255
0 127 0
0 127 0
0 127 0
0 127 0
0 127 0
0 127 0
0 127 0
0 127 0
0 127 0
255 255 255
0 127 0
0 127 0
0 127 0
0 127 0
0 127 0
0 127 0
0 127 0
0 127 0
0 127 0
0 127 0
0 127 0
0 127 0
0 127 0
0 127 0
0 127 0
0 127 0
0 127 0
0 127 0
0 127 0
0 127 0
0 127 0
0 127 0
0 127 0
0 127 0
0 127 0
0 127 0
0 127 0
0 127 0
0 127 0
0 127 0
0 127 0
0 127 0
0 127 0
0 127 0
0 127 0
0 127 0
255 255 255
0 127 0
0 127 0
0 127 0
0 127 0
0 127 0
0 127 0
0 127 0
0 127 0
0 127 0
255 255 255
0 127 0
0 127 0
0 127 0
0 127 0
0 127 0
0 127 0
0 127 0
0 127 0
0 127 0
0 127 0
0 127 0
0 127 0
0 127 0
0 127 0
0 127 0
0 127 0
0 127 0
0 127 0
0 127 0
0 127 0
0 127 0
0 127 0
0 127 0
255 255 255
255 255 255
0 127 0
0 127 0
0 127 0
0 127 0
0 127 0
255 255 255
255 255 255
0 127 0
0 127 0
0 127 0
0 127 0
0 127 0
0 127 0
0 127 0
0 127 0
0 127 0
0 127 0
0 127 0
0 127 0
0 127 0
0 127 0
0 127 0
0 127 0
0 127 0
0 127 0
0 127 0
0 127 0
0 127 0
0 127 0
0 127 0
0 127 0
0 127 0
0 127 0
0 127 0
0 127 0
0 127 0
0 127 0
0 127 0
0 127 0
0 127 0
0 127 0
0 127 0
0 127 0
0 127 0
0 127 0
255 255 255
255 255 255
0 127 0
0 127 0
0 127 0
0 127 0
0 127 0
255 255 255
255 255 255
0 127 0
0 127 0
0 127 0
0 127 0
0 127 0
0 127 0
0 127 0
0 127 0
0 127 0
0 127 0
0 127 0
0 127 0
0 127 0
0 127 0
0 127 0
0 127 0
0 127 0
0 127 0
0 127 0
0 127 0
0 127 0
0 127 0
0 127 0
0 127 0
0 127 0
0 127 0
255 255 255
255 255 255
255 255 255
255 255 255
255 255 255
0 127 0
0 127 0
0 127 0
0 127 0
0 127 0
0 127 0
0 127 0
0 127 0
0 127 0
0 127 0
0 127 0
0 127 0
0 127 0
0 127 0
0 127 0
0 127 0
0 127 0
0 127 0
0 127 0
0 127 0
0 127 0
0 127 0
0 127 0
0 127 0
0 127 0
0 127 0
0 127 0
0 127 0
0 127 0
0 127 0
0 127 0
0 127 0
0 127 0
0 127 0
0 127 0
0 127 0
0 127 0
0 127 0
0 127 0
0 127 0
0 127 0
0 127 0
255 255 255
255 255 255
255 255 255
255 255 255
255 255 255
0 127 0
0 127 0
0 127 0
0 127 0
0 127 0
0 127 0
0 127 0
0 127 0
0 127 0
0 127 0
0 127 0
0 127 0
0 127 0
0 127 0
0 127 0
0 127 0
0 127 0
0 127 0
0 127 0
0 127 0
0 127 0
0 127 0
0 127 0
0 127 0
0 127 0
0 127 0
0 127 0
0 127 0
0 127 0
0 127 0
0 127 0
0 127 0
0 127 0
0 127 0
0 127 0
0 127 0
0 127 0
0 127 0
0 127 0
0 127 0
0 127 0
0 127 0
0 127 0
0 127 0
0 127 0
0 127 0
0 127 0
0 127 0
0 127 0
0 127 0
0 127 0
0 127 0
0 127 0
0 127 0
0 127 0
0 127 0
0 127 0
0 127 0
0 127 0
0 127 0
0 127 0
0 127 0
0 127 0
0 127 0
0 127 0
0 127 0
0 127 0
0 127 0
0 127 0
0 127 0
0 127 0
0 127 0
0 127 0
0 127 0
0 127 0
0 127 0
0 127 0
0 127 0
0 127 0
0 127 0
0 127 0
0 127 0
0 127 0
0 127 0
0 127 0
0 127 0
0 127 0
0 127 0
0 127 0
0 127 0
0 127 0
0 127 0
0 127 0
0 127 0
0 127 0
0 127 0
0 127 0
0 127 0
0 127 0
0 127 0
0 127 0
0 127 0
0 127 0
0 127 0
0 127 0
0 127 0
0 127 0
0 127 0
0 127 0
0 127 0
0 127 0
0 127 0
0 127 0
0 127 0
0 127 0
0 127 0
0 127 0
0 127 0
0 127 0
0 127 0
0 127 0
0 127 0
0 127 0
0 127 0
0 127 0
0 127 0
0 127 0
0 127 0
0 127 0
0 127 0
0 127 0
0 127 0
0 127 0
0 127 0
0 127 0
0 127 0
0 127 0
0 127 0
0 127 0
0 127 0
0 127 0
0 127 0
0 127 0
0 127 0
0 127 0
0 127 0
0 127 0
0 127 0
0 127 0
0 127 0
0 127 0
0 127 0
0 127 0
0 127 0
0 127 0
0 127 0
0 127 0
0 127 0
0 127 0
0 127 0
0 127 0
0 127 0
0 127 0
0 127 0
0 127 0
0 127 0
0 127 0
0 127 0
0 127 0
0 127 0
0 127 0
0 127 0
0 127 0
0 127 0
0 127 0
0 127 0
0 127 0
0 127 0
0 127 0
0 127 0
0 127 0
0 127 0
0 127 0
0 127 0
0 127 0
0 127 0
0 127 0
0 127 0
0 127 0
0 127 0
0 127 0
0 127 0
0 127 0
0 127 0
0 127 0
0 127 0
0 127 0
0 127 0
0 127 0
0 127 0
0 127 0
0 127 0
0 127 0
0 127 0
0 127 0
0 127 0
0 127 0
0 127 0
0 127 0
0 127 0
0 127 0
0 127 0
0 127 0
0 127 0
0 127 0
0 127 0
0 127 0
0 127 0
0 127 0
0 127 0
0 127 0
0 127 0
0 127 0
0 127 0
0 127 0
0 127 0
0 127 0
0 127 0
0 127 0
0 127 0
0 127 0
0 127 0
0 127 0
0 127 0
0 127 0
0 127 0
0 127 0
0 127 0
0 127 0
0 127 0
0 127 0
0 127 0
0 127 0
0 127 0
0 127 0
0 127 0
0 127 0
0 127 0
0 127 0
0 127 0
0 127 0
0 127 0
0 127 0
0 127 0
0 127 0
0 127 0
0 127 0
0 127 0
0 127 0
0 127 0
0 127 0
0 127 0
0 127 0
0 127 0
0 127 0
0 127 0
0 127 0
0 127 0
0 127 0
0 127 0
0 127 0
0 127 0
0 127 0
0 127 0
0 127 0
0 127 0
0 127 0
0 127 0
0 127 0
0 127 0
0 127 0
0 127 0
0 127 0
0 127 0
0 127 0
0 127 0
0 127 0
0 127 0
0 127 0
0 127 0
0 127 0
0 127 0
0 127 0
0 127 0
0 127 0
0 127 0
0 127 0
0 127 0
0 127 0
0 127 0
0 127 0
0 127 0
0 127 0
0 127 0
0 127 0
0 127 0
0 127 0
0 127 0
0 127 0
0 127 0
0 127 0
0 127 0
0 127 0
0 127 0
0 127 0
0 127 0
0 127 0
0 127 0
0 127 0
0 127 0
0 127 0
0 127 0
0 127 0
0 127 0
0 127 0
0 127 0
0 127 0
0 127 0
0 127 0
0 127 0
0 127 0
0 127 0
0 127 0
0 127 0
0 127 0
0 127 0
0 127 0
0 127 0
0 127 0
0 127 0
0 127 0
0 127 0
0 127 0
0 127 0
0 127 0
0 127 0
0 127 0
0 127 0
0 127 0
0 127 0
0 127 0
0 127 0
0 127 0
0 127 0
0 127 0
0 127 0
0 127 0
0 127 0
0 127 0
0 127 0
0 127 0
0 127 0
0 127 0
0 127 0
0 127 0
0 127 0
0 127 0
0 127 0
0 127 0
0 127 0
0 127 0
0 127 0
0 127 0
0 127 0
0 127 0
0 127 0
0 127 0
0 127 0
0 127 0
0 127 0
0 127 0
0 127 0
0 127 0
0 127 0
0 127 0
0 127 0
0 127 0
0 127 0
0 127 0
0 127 0
0 127 0
0 127 0
0 127 0
0 127 0
0 127 0
0 127 0
0 127 0
0 127 0
0 127 0
0 127 0
0 127 0
0 127 0
0 127 0
0 127 0
0 127 0
0 127 0
0 127 0
0 127 0
0 127 0
0 127 0
0 127 0
0 127 0
0 127 0
0 127 0
0 127 0
0 127 0
0 127 0
0 127 0
0 127 0
0 127 0
0 127 0
0 127 0
0 127 0
0 127 0
0 127 0
0 127 0
0 127 0
0 127 0
0 127 0
0 127 0
0 127 0
0 127 0
0 127 0
0 127 0
0 127 0
0 127 0
0 127 0
0 127 0
0 127 0
0 127 0
0 127 0
0 127 0
0 127 0
0 127 0
0 127 0
0 127 0
0 127 0
0 127 0
0 127 0
0 127 0
0 127 0
0 127 0
0 127 0
0 127 0
0 127 0
0 127 0
0 127 0
0 127 0
0 127 0
0 127 0
0 127 0
0 127 0
0 127 0
0 127 0
0 127 0
0 127 0
0 127 0
0 127 0
0 127 0
0 127 0
0 127 0
0 127 0
0 127 0
0 127 0
0 127 0
0 127 0
0 127 0
0 127 0
0 127 0
0 127 0
0 127 0
0 127 0
0 127 0
0 127 0
0 127 0
0 127 0
0 127 0
0 127 0
0 127 0
0 127 0
0 127 0
0 127 0
0 127 0
0 127 0
0 127 0
0 127 0
0 127 0
0 127 0
0 127 0
0 127 0
0 127 0
0 127 0
0 127 0
0 127 0
0 127 0
0 127 0
0 127 0
0 127 0
0 127 0
0 127 0
0 127 0
0 127 0
0 127 0
0 127 0
0 127 0
0 127 0
0 127 0
0 127 0
0 127 0
0 127 0
0 127 0
0 127 0
0 127 0
0 127 0
0 127 0
0 127 0
0 127 0
0 127 0
0 127 0
0 127 0
0 127 0
0 127 0
0 127 0
0 127 0
0 127 0
0 127 0
0 127 0
0 127 0
0 127 0
0 127 0
0 127 0
0 127 0
0 127 0
0 127 0
0 127 0
0 127 0
0 127 0
0 127 0
0 127 0
0 127 0
0 127 0
0 127 0
0 127 0
0 127 0
0 127 0
0 127 0
0 127 0
0 127 0
0 127 0
0 127 0
0 127 0
0 127 0
0 127 0
0 127 0
0 127 0
0 127 0
0 127 0
0 127 0
0 127 0
0 127 0
0 127 0
0 127 0
0 127 0
0 127 0
0 127 0
0 127 0
0 127 0
0 127 0
0 127 0
0 127 0
0 127 0
0 127 0
0 127 0
0 127 0
0 127 0
0 127 0
0 127 0
0 127 0
0 127 0
0 127 0
0 127 0
0 127 0
0 127 0
0 127 0
255 255 255
255 255 255
0 127 0
0 127 0
0 127 0
0 127 0
0 127 0
0 127 0
0 127 0
0 127 0
0 127 0
0 127 0
0 127 0
0 127 0
0 127 0
0 127 0
0 127 0
0 127 0
0 127 0
0 127 0
0 127 0
0 127 0
0 127 0
0 127 0
0 127 0
0 127 0
0 127 0
0 127 0
0 127 0
0 127 0
0 127 0
0 127 0
0 127 0
0 127 0
0 127 0
0 127 0
0 127 0
0 127 0
255 255 255
255 255 255
0 127 0
0 127 0
0 127 0
0 127 0
0 127 0
0 127 0
0 127 0
0 127 0
0 127 0
0 127 0
0 127 0
0 127 0
0 127 0
0 127 0
0 127 0
0 127 0
0 127 0
0 127 0
0 127 0
0 127 0
0 127 0
0 127 0
0 127 0
0 127 0
0 127 0
0 127 0
0 127 0
0 127 0
0 127 0
0 127 0
0 127 0
0 127 0
0 127 0
0 127 0
0 127 0
0 127 0
0 127 0
0 127 0
0 127 0
0 127 0
0 127 0
0 127 0
255 255 255
255 255 255
0 127 0
0 127 0
0 127 0
0 127 0
0 127 0
0 127 0
0 127 0
0 127 0
0 127 0
0 127 0
0 127 0
0 127 0
0 127 0
0 127 0
0 127 0
0 127 0
0 127 0
0 127 0
0 127 0
0 127 0
0 127 0
0 127 0
0 127 0
0 127 0
0 127 0
0 127 0
0 127 0
0 127 0
0 127 0
0 127 0
0 127 0
0 127 0
255 255 255
255 255 255
0 127 0
0 127 0
0 127 0
0 127 0
0 127 0
0 127 0
0 127 0
0 127 0
0 127 0
0 127 0
0 127 0
0 127 0
0 127 0
0 127 0
0 127 0
0 127 0
0 127 0
0 127 0
0 127 0
0 127 0
0 127 0
0 127 0
0 127 0
0 127 0
0 127 0
0 127 0
0 127 0
0 127 0
0 127 0
0 127 0
0 127 0
0 127 0
0 127 0
0 127 0
0 127 0
0 127 0
0 127 0
0 127 0
0 127 0
0 127 0
0 127 0
0 127 0
0 127 0
0 127 0
0 127 0
0 127 0
255 255 255
255 255 255
0 127 0
0 127 0
0 127 0
0 127 0
0 127 0
0 127 0
0 127 0
0 127 0
0 127 0
0 127 0
0 127 0
0 127 0
0 127 0
0 127 0
0 127 0
0 127 0
0 127 0
0 127 0
0 127 0
0 127 0
0 127 0
0 127 0
0 127 0
0 127 0
0 127 0
0 127 0
0 127 0
0 127 0
255 255 255
255 255 255
0 127 0
0 127 0
0 127 0
0 127 0
0 127 0
0 127 0
0 127 0
0 127 0
0 127 0
0 127 0
0 127 0
0 127 0
0 127 0
0 127 0
0 127 0
0 127 0
0 127 0
0 127 0
0 127 0
0 127 0
0 127 0
0 127 0
0 127 0
0 127 0
0 127 0
0 127 0
0 127 0
0 127 0
0 127 0
0 127 0
0 127 0
0 127 0
0 127 0
0 127 0
0 127 0
0 127 0
0 127 0
0 127 0
0 127 0
0 127 0
0 127 0
0 127 0
0 127 0
0 127 0
0 127 0
0 127 0
0 127 0
0 127 0
0 127 0
0 127 0
255 255 255
255 255 255
0 127 0
0 127 0
0 127 0
0 127 0
0 127 0
0 127 0
0 127 0
0 127 0
0 127 0
0 127 0
0 127 0
0 127 0
0 127 0
0 127 0
0 127 0
0 127 0
0 127 0
0 127 0
0 127 0
0 127 0
0 127 0
0 127 0
0 127 0
0 127 0
255 255 255
255 255 255
0 127 0
0 127 0
0 127 0
0 127 0
0 127 0
0 127 0
0 127 0
0 127 0
0 127 0
0 127 0
0 127 0
0 127 0
0 127 0
0 127 0
0 127 0
0 127 0
0 127 0
0 127 0
0 127 0
0 127 0
0 127 0
0 127 0
0 127 0
0 127 0
0 127 0
0 127 0
0 127 0
0 127 0
0 127 0
0 127 0
0 127 0
0 127 0
0 127 0
0 127 0
0 127 0
0 127 0
0 127 0
0 127 0
0 127 0
0 127 0
0 127 0
0 127 0
0 127 0
0 127 0
0 127 0
0 127 0
0 127 0
0 127 0
0 127 0
0 127 0
0 127 0
0 127 0
0 127 0
0 127 0
255 255 255
255 255 255
255 255 255
255 255 255
255 255 255
255 255 255
255 255 255
255 255 255
255 255 255
255 255 255
255 255 255
255 255 255
255 255 255
255 255 255
255 255 255
255 255 255
255 255 255
255 255 255
255 255 255
255 255 255
255 255 255
255 255 255
255 255 255
255 255 255
0 127 0
0 127 0
0 127 0
0 127 0
0 127 0
0 127 0
0 127 0
0 127 0
0 127 0
0 127 0
0 127 0
0 127 0
0 127 0
0 127 0
0 127 0
0 127 0
0 127 0
0 127 0
0 127 0
0 127 0
0 127 0
0 127 0
0 127 0
0 127 0
0 127 0
0 127 0
0 127 0
0 127 0
0 127 0
0 127 0
0 127 0
0 127 0
0 127 0
0 127 0
0 127 0
0 127 0
0 127 0
0 127 0
0 127 0
0 127 0
0 127 0
0 127 0
0 127 0
0 127 0
0 127 0
0 127 0
0 127 0
0 127 0
0 127 0
0 127 0
0 127 0
0 127 0
0 127 0
0 127 0
0 127 0
0 127 0
0 127 0
0 127 0
0 127 0
0 127 0
0 127 0
0 127 0
0 127 0
0 127 0
0 127 0
0 127 0
0 127 0
0 127 0
0 127 0
0 127 0
0 127 0
0 127 0
0 127 0
0 127 0
0 127 0
0 127 0
0 127 0
0 127 0
0 127 0
0 127 0
0 127 0
0 127 0
0 127 0
0 127 0
0 127 0
0 127 0
0 127 0
0 127 0
0 127 0
0 127 0
0 127 0
0 127 0
0 127 0
0 127 0
0 127 0
0 127 0
0 127 0
0 127 0
0 127 0
0 127 0
0 127 0
0 127 0
0 127 0
0 127 0
0 127 0
0 127 0
0 127 0
0 127 0
0 127 0
0 127 0
0 127 0
0 127 0
0 127 0
0 127 0
0 127 0
0 127 0
0 127 0
0 127 0
0 127 0
0 127 0
0 127 0
0 127 0
0 127 0
0 127 0
0 127 0
0 127 0
0 127 0
0 127 0
0 127 0
0 127 0
0 127 0
0 127 0
0 127 0
0 127 0
0 127 0
0 127 0
0 127 0
0 127 0
0 127 0
0 127 0
0 127 0
0 127 0
0 127 0
0 127 0
0 127 0
0 127 0
0 127 0
0 127 0
0 127 0
0 127 0
0 127 0
0 127 0
0 127 0
0 127 0
0 127 0
0 127 0
0 127 0
0 127 0
0 127 0
0 127 0
0 127 0
0 127 0
0 127 0
0 127 0
0 127 0
0 127 0
0 127 0
0 127 0
0 127 0
0 127 0
0 127 0
0 127 0
0 127 0
0 127 0
0 127 0
0 127 0
0 127 0
0 127 0
0 127 0
0 127 0
0 127 0
0 127 0
0 127 0
0 127 0
0 127 0
0 127 0
0 127 0
0 127 0
0 127 0
0 127 0
0 127 0
0 127 0
0 127 0
0 127 0
0 127 0
0 127 0
0 127 0
0 127 0
0 127 0
0 127 0
0 127 0
0 127 0
0 127 0
0 127 0
0 127 0
0 127 0
0 127 0
0 127 0
0 127 0
0 127 0
0 127 0
0 127 0
0 127 0
0 127 0
0 127 0
0 127 0
0 127 0
0 127 0
0 127 0
0 127 0
0 127 0
0 127 0
0 127 0
0 127 0
0 127 0
0 127 0
0 127 0
0 127 0
0 127 0
0 127 0
0 127 0
0 127 0
0 127 0
0 127 0
0 127 0
0 127 0
0 127 0
0 127 0
0 127 0
0 127 0
0 127 0
0 127 0
0 127 0
0 127 0
0 127 0
0 127 0
0 127 0
0 127 0
0 127 0
0 127 0
0 127 0
0 127 0
0 127 0
0 127 0
0 127 0
0 127 0
0 127 0
0 127 0
0 127 0
0 127 0
0 127 0
0 127 0
0 127 0
0 127 0
0 127 0
0 127 0
0 127 0
0 127 0
0 127 0
0 127 0
0 127 0
0 127 0
0 127 0
0 127 0
0 127 0
0 127 0
0 127 0
0 127 0
0 127 0
0 127 0
0 127 0
0 127 0
0 127 0
0 127 0
0 127 0
0 127 0
0 127 0
0 127 0
0 127 0
0 127 0
0 127 0
0 127 0
0 127 0
0 127 0
0 127 0
0 127 0
0 127 0
0 127 0
0 127 0
0 127 0
0 127 0
0 127 0
0 127 0
0 127 0
0 127 0
0 127 0
0 127 0
0 127 0
0 127 0
0 127 0
0 127 0
0 127 0
0 127 0
0 127 0
0 127 0
0 127 0
0 127 0
0 127 0
0 127 0
0 127 0
0 127 0
0 127 0
0 127 0
0 127 0
0 127 0
0 127 0
0 127 0
0 127 0
0 127 0
0 127 0
0 127 0
0 127 0
0 127 0
0 127 0
0 127 0
0 127 0
0 127 0
0 127 0
0 127 0
0 127 0
0 127 0
0 127 0
0 127 0
0 127 0
0 127 0
0 127 0
0 127 0
0 127 0
0 127 0
0 127 0
0 127 0
0 127 0
0 127 0
0 127 0
0 127 0
0 127 0
0 127 0
0 127 0
0 127 0
0 127 0
0 127 0
0 127 0
0 127 0
0 127 0
0 127 0
0 127 0
0 127 0
0 127 0
0 127 0
0 127 0
0 127 0
0 127 0
0 127 0
0 127 0
0 127 0
0 127 0
0 127 0
0 127 0
0 127 0
0 127 0
0 127 0
0 127 0
0 127 0
0 127 0
0 127 0
0 127 0
0 127 0
0 127 0
0 127 0
0 127 0
0 127 0
0 127 0
0 127 0
0 127 0
0 127 0
0 127 0
0 127 0
0 127 0
0 127 0
0 127 0
0 127 0
0 127 0
0 127 0
0 127 0
0 127 0
0 127 0
0 127 0
0 127 0
0 127 0
0 127 0
0 127 0
0 127 0
0 127 0
0 127 0
0 127 0
0 127 0
0 127 0
0 127 0
0 127 0
0 127 0
0 127 0
0 127 0
0 127 0
0 127 0
0 127 0
0 127 0
0 127 0
0 127 0
